build/flags/Brazil.svg

<svg xmlns="http://www.w3.org/2000/svg" fill="none" viewBox="0 0 28 28" focusable="false"><mask id="Brazil_svg__c" width="9.333" height="9.333" x="9.333" y="9.333" maskUnits="userSpaceOnUse"><g fill-rule="evenodd" filter="url(#Brazil_svg__a)"><path fill="#053087" d="M14 18.6666C16.5773 18.6666 18.6666 16.5773 18.6666 14C18.6666 11.4227 16.5773 9.33331 14 9.33331C11.4227 9.33331 9.33331 11.4227 9.33331 14C9.33331 16.5773 11.4227 18.6666 14 18.6666Z"/><path stroke="#969696" stroke-opacity="0" stroke-width="0" d="M18.6666 14C18.6666 11.4227 16.5773 9.33331 14 9.33331C11.4227 9.33331 9.33331 11.4227 9.33331 14C9.33331 16.5773 11.4227 18.6666 14 18.6666C16.5773 18.6666 18.6666 16.5773 18.6666 14Z"/></g></mask><defs><filter id="Brazil_svg__a"><feColorMatrix values="0 0 0 0 1 0 0 0 0 1 0 0 0 0 1 0 0 0 1 0"/></filter></defs><mask id="Brazil_svg__b" width="28" height="20" x="0" y="4" maskUnits="userSpaceOnUse"><g filter="url(#Brazil_svg__a)"><rect width="28" height="20" y="4" fill="#FFF" rx="3"/><rect width="28" height="20" y="4" stroke="#969696" stroke-opacity="0" stroke-width="0" rx="3"/></g></mask><path fill="none" d="M0 0H28V28H0z"/><rect width="28" height="20" y="4" fill="#FFF" rx="3"/><rect width="28" height="20" y="4" rx="3"/><g mask="url(#Brazil_svg__b)"><path fill="#05AB41" d="M0 4H28V24H0z"/><path d="M0 4H28V24H0z"/><path fill="#FDD216" fill-rule="evenodd" d="M3.5317 14.5597C3.1257 14.297 3.1257 13.703 3.5317 13.4403L13.6379 6.90103C13.8582 6.75843 14.1418 6.75843 14.3622 6.90103L24.4683 13.4403C24.8743 13.703 24.8743 14.297 24.4683 14.5597L14.3622 21.099C14.1418 21.2416 13.8582 21.2416 13.6379 21.099L3.5317 14.5597Z"/><path d="M13.6379 6.90103C13.8582 6.75843 14.1418 6.75843 14.3622 6.90103L24.4683 13.4403C24.8743 13.703 24.8743 14.297 24.4683 14.5597L14.3622 21.099C14.1418 21.2416 13.8582 21.2416 13.6379 21.099L3.5317 14.5597C3.1257 14.297 3.1257 13.703 3.5317 13.4403L13.6379 6.90103Z"/><path fill="#053087" fill-rule="evenodd" d="M14 18.6666C16.5773 18.6666 18.6666 16.5773 18.6666 14C18.6666 11.4227 16.5773 9.33331 14 9.33331C11.4227 9.33331 9.33331 11.4227 9.33331 14C9.33331 16.5773 11.4227 18.6666 14 18.6666Z"/><path d="M18.6666 14C18.6666 11.4227 16.5773 9.33331 14 9.33331C11.4227 9.33331 9.33331 11.4227 9.33331 14C9.33331 16.5773 11.4227 18.6666 14 18.6666C16.5773 18.6666 18.6666 16.5773 18.6666 14Z"/><g mask="url(#Brazil_svg__c)"><path fill="none" d="M0 0.391604C0.666667 -0.275062 3.07682 0.0367868 5.33333 0.391604C7.58984 0.746422 10.0081 1.73306 10.6667 2.3916" transform="rotate(6 -113.804 90.352)"/><path stroke="#FFF" stroke-linecap="square" stroke-width="1.333" d="M0 0.391604C0.666667 -0.275062 3.07682 0.0367868 5.33333 0.391604C7.58984 0.746422 10.0081 1.73306 10.6667 2.3916" transform="rotate(6 -113.804 90.352)"/></g></g></svg>

<svg xmlns="http://www.w3.org/2000/svg" fill="none" viewBox="0 0 28 28" focusable="false"><path fill="none" d="M0 0h28v28H0z"/><rect width="28" height="20" y="4" fill="#FFF" rx="3"/><rect width="28" height="20" y="4" rx="3"/><mask id="Brazil_svg__a" width="28" height="20" x="0" y="4" mask-type="alpha" maskUnits="userSpaceOnUse"><rect width="28" height="20" y="4" fill="#FFF" rx="3"/><rect width="28" height="20" y="4" stroke="#979797" stroke-opacity="0" stroke-width="0" rx="3"/></mask><g mask="url(#Brazil_svg__a)"><path fill="#05AB41" d="M0 4h28v20H0z"/><path d="M0 4h28v20H0z"/></g><g mask="url(#Brazil_svg__a)"><path fill="#FDD216" fill-rule="evenodd" d="M3.53 14.55a.655.655 0 0 1 0-1.11l10.1-6.54c.22-.15.51-.15.73 0l10.1 6.54c.41.26.41.85 0 1.11l-10.1 6.54c-.22.15-.51.15-.73 0z"/><path d="M13.63 6.9c.22-.15.51-.15.73 0l10.1 6.54c.41.26.41.85 0 1.11l-10.1 6.54c-.22.15-.51.15-.73 0l-10.1-6.54a.655.655 0 0 1 0-1.11z"/></g><g mask="url(#Brazil_svg__a)"><path fill="#053087" fill-rule="evenodd" d="M14 18.66a4.665 4.665 0 1 0-.01-9.33 4.665 4.665 0 0 0 .01 9.33"/><path d="M18.66 14c0-2.58-2.09-4.67-4.66-4.67-2.58 0-4.67 2.09-4.67 4.67a4.665 4.665 0 0 0 9.33 0"/><mask id="Brazil_svg__b" width="9.333" height="9.333" x="9.333" y="9.333" mask-type="alpha" maskUnits="userSpaceOnUse"><path fill="#053087" fill-rule="evenodd" d="M14 18.66a4.665 4.665 0 1 0-.01-9.33 4.665 4.665 0 0 0 .01 9.33"/><path stroke="#979797" stroke-opacity="0" stroke-width="0" d="M18.66 14c0-2.58-2.09-4.67-4.66-4.67-2.58 0-4.67 2.09-4.67 4.67a4.665 4.665 0 0 0 9.33 0Z"/></mask><g mask="url(#Brazil_svg__b)"><path fill="none" d="m9.21 13.28-.53.43-.84-1.03.53-.44zm10.47 2.16.43.54-1.03.84-.44-.54z"/><path stroke="#FFF" stroke-linecap="square" stroke-width="1.333" d="M8.77 12.78c.74-.6 3.1-.04 5.31.55s4.51 1.83 5.09 2.55"/></g></g></svg>
